packages/foundations/assets/icons/functional/images/buildings/market_16.svg

<svg width="16" height="16" viewBox="0 0 16 16" fill="none" xmlns="http://www.w3.org/2000/svg">
<g clip-path="url(#clip0_184_208)">
<path fill-rule="evenodd" clip-rule="evenodd" d="M2.4005 14.4C2.18833 14.4 1.98484 14.3157 1.83481 14.1657C1.68478 14.0157 1.6005 13.8122 1.6005 13.6C1.6005 13.3878 1.68478 13.1843 1.83481 13.0343C1.98484 12.8843 2.18833 12.8 2.4005 12.8V7.67601C2.06132 7.35179 1.8165 6.94159 1.69216 6.48916C1.56783 6.03672 1.56863 5.55902 1.6945 5.10701L2.2735 2.81301C2.35983 2.46668 2.55949 2.15916 2.84071 1.93936C3.12193 1.71957 3.46857 1.60012 3.8255 1.60001H12.1735C12.8665 1.60001 13.5365 2.06201 13.7275 2.81301L14.3165 5.10701C14.3725 5.32601 14.4005 5.55701 14.4005 5.80001C14.4005 6.53701 14.0935 7.20201 13.6005 7.67601V12.8C13.8127 12.8 14.0162 12.8843 14.1662 13.0343C14.3162 13.1843 14.4005 13.3878 14.4005 13.6C14.4005 13.8122 14.3162 14.0157 14.1662 14.1657C14.0162 14.3157 13.8127 14.4 13.6005 14.4H2.4005ZM12.0005 11.2H4.0005V12.8H12.0005V11.2ZM10.5335 8.07001C10.1465 8.28652 9.71045 8.4002 9.267 8.4002C8.82355 8.4002 8.3875 8.28652 8.0005 8.07001C7.61391 8.28797 7.1773 8.40169 6.7335 8.40001C6.2835 8.40001 5.8625 8.29001 5.4665 8.07001C4.9965 8.32301 4.5085 8.43101 4.0005 8.39201V9.60001H12.0005V8.40001C11.4495 8.42601 10.9605 8.31601 10.5335 8.07001ZM12.1735 3.20001H3.8255L3.2305 5.60801C3.2145 5.68001 3.2005 5.72401 3.2005 5.80001C3.2005 6.06522 3.30586 6.31958 3.49339 6.50711C3.68093 6.69465 3.93528 6.80001 4.2005 6.80001C4.6025 6.80001 5.0245 6.52001 5.4675 5.96001C5.9275 6.52001 6.3495 6.80001 6.7335 6.80001C7.1185 6.80001 7.5405 6.52001 8.0005 5.96001C8.4775 6.52001 8.8995 6.80001 9.2675 6.80001C9.6345 6.80001 10.0575 6.52001 10.5325 5.96001C10.9985 6.52001 11.4225 6.80001 11.8005 6.80001C12.0657 6.80001 12.3201 6.69465 12.5076 6.50711C12.6951 6.31958 12.8005 6.06522 12.8005 5.80001C12.8005 5.71701 12.8015 5.68701 12.7825 5.60801L12.1735 3.20001Z" fill="#1A1C1F"/>
</g>
<defs>
<clipPath id="clip0_184_208">
<rect width="16" height="16" fill="white"/>
</clipPath>
</defs>
</svg>

<svg xmlns="http://www.w3.org/2000/svg" width="16" height="16" fill="none"><g clip-path="url(#a)"><path fill="#1A1C1F" fill-rule="evenodd" d="M2.4 14.4a.8.8 0 0 1 0-1.6V7.676a2.59 2.59 0 0 1-.705-2.569l.578-2.294A1.6 1.6 0 0 1 3.826 1.6h8.349c.693 0 1.363.462 1.553 1.213l.59 2.294q.083.329.083.693c0 .737-.306 1.402-.8 1.876V12.8a.8.8 0 1 1 0 1.6zm9.6-3.2H4v1.6h8zm-1.466-3.13A2.6 2.6 0 0 1 8 8.07a2.56 2.56 0 0 1-1.267.33q-.675 0-1.267-.33-.705.38-1.466.322V9.6h8V8.4q-.826.039-1.467-.33m1.64-4.87H3.826L3.23 5.608c-.016.072-.03.116-.03.192a1 1 0 0 0 1 1q.603 0 1.267-.84.69.84 1.266.84T8 5.96q.714.84 1.267.84.55 0 1.265-.84.7.84 1.268.84a1 1 0 0 0 1-1c0-.083 0-.113-.018-.192z" clip-rule="evenodd"/></g><defs><clipPath id="a"><path fill="#fff" d="M0 0h16v16H0z"/></clipPath></defs></svg>
